static/assets/images/logos/monochrome/sage.svg

<svg width="105" height="60" viewBox="0 0 105 60" fill="none" xmlns="http://www.w3.org/2000/svg">
<path d="M11.6033 0C18.1726 0 23.5142 4.54318 23.6373 10.8664C23.6988 12.6465 22.4096 13.6295 20.9973 13.6295C19.6465 13.6295 18.4803 12.6478 18.4188 10.9895C18.3572 7.42791 15.3494 4.78787 11.5418 4.78787C7.98025 4.78787 5.28007 7.30489 5.28007 10.7433C5.28007 14.4881 7.79709 16.1465 13.0156 18.0496C18.602 20.0758 23.6988 22.4697 23.6988 29.5914C23.6988 35.7929 18.848 40.7654 12.0955 40.7654C5.46466 40.7654 0 36.0992 0 29.776C0 25.8467 1.90313 23.0836 3.74473 23.0836C5.3416 23.0836 6.32323 24.1268 6.32323 25.5391C6.32323 26.7668 5.28007 27.3192 5.28007 29.5299C5.28007 33.4592 8.47245 35.9762 12.0955 35.9762C15.9017 35.9762 18.4188 33.3361 18.4188 30.1437C18.4188 26.2145 15.9017 24.5574 10.6832 22.7144C4.85079 20.6295 0 18.1111 0 11.174C0 4.91232 5.03399 0 11.6033 0Z" fill="black"/>
<path d="M38.3973 40.7668C31.7665 40.7668 26.2417 35.4252 26.2417 28.6713C26.2417 21.6726 31.828 16.4541 38.5819 16.4541C45.8265 16.4541 50.9219 21.8572 50.9219 29.225V38.1883C50.9219 39.7236 49.6943 40.7668 48.2822 40.7668C46.8085 40.7668 45.5804 39.7236 45.5804 38.1883V29.4082C45.5804 24.5574 42.8176 21.242 38.4589 21.242C34.5911 21.242 31.5218 24.4959 31.5218 28.6713C31.5218 32.5391 34.5296 35.8545 38.3372 35.8545C39.7495 35.8545 40.3634 35.4867 41.2233 35.4867C42.3896 35.4867 43.6173 36.4684 43.6173 37.8807C43.616 39.7838 41.3436 40.7668 38.3973 40.7668Z" fill="black"/>
<path d="M66.05 59.0626C59.1733 59.0626 53.4639 54.1502 53.4639 47.7654C53.4639 45.6163 54.6915 44.6347 56.104 44.6347C57.516 44.6347 58.6824 45.5562 58.7441 47.3362C58.8054 51.327 61.9978 54.2733 65.9887 54.2733C70.2256 54.2733 72.9872 51.5719 72.9872 48.0716C72.9872 44.0807 69.9178 42.4238 64.6993 40.7654C58.6211 38.8007 53.4639 36.0992 53.4639 28.6097C53.4639 21.7328 58.7441 16.4541 65.6195 16.4541C72.5566 16.4541 78.2674 21.4881 78.2674 28.1189C78.2674 32.1713 76.6105 35.3021 74.3379 35.3021C72.8028 35.3021 71.7595 34.1975 71.7595 32.8467C71.7595 31.4344 72.9872 30.8205 72.9872 28.3035C72.9872 24.0666 69.6717 21.2434 65.6808 21.2434C61.813 21.2434 58.7441 24.191 58.7441 28.0588C58.7441 32.4174 61.8748 34.2603 67.032 35.9789C72.9872 37.9435 78.2674 40.399 78.2674 47.5823C78.2674 54.0284 73.1719 59.0626 66.05 59.0626Z" fill="black"/>
<path d="M93.3354 40.7669C86.4583 40.7669 80.8105 35.3638 80.8105 28.6112C80.8105 21.8573 86.2752 16.4556 93.0275 16.4556C99.8433 16.4556 105 21.1833 105 27.2003C105 29.5327 103.343 30.945 100.642 30.945H93.5815C92.169 30.945 91.1257 29.9634 91.1257 28.6727C91.1257 27.445 92.169 26.462 93.5815 26.462H98.8613C99.3523 26.462 99.7215 26.2159 99.7215 25.7251C99.7215 23.945 97.4493 21.1819 93.2136 21.1819C89.2845 21.1819 86.092 24.5589 86.092 28.6112C86.092 32.7251 89.3458 35.979 93.3979 35.979C98.0646 35.979 99.5997 33.2159 101.503 33.2159C103.1 33.2159 103.958 34.2591 103.958 35.4267C103.958 36.5314 103.221 37.5144 101.38 38.6806C99.5354 39.8454 96.7739 40.7669 93.3354 40.7669Z" fill="black"/>
</svg>

<svg clip-rule="evenodd" fill-rule="evenodd" stroke-linejoin="round" stroke-miterlimit="2" viewBox="0 0 1000 563" xmlns="http://www.w3.org/2000/svg"><g fill-rule="nonzero" transform="scale(9.52381)"><path d="m11.603 0c6.57 0 11.911 4.543 12.034 10.866.062 1.781-1.227 2.764-2.64 2.764-1.35 0-2.517-.982-2.578-2.64-.062-3.562-3.07-6.202-6.877-6.202-3.562 0-6.262 2.517-6.262 5.955 0 3.745 2.517 5.404 7.736 7.307 5.586 2.026 10.683 4.42 10.683 11.541 0 6.202-4.851 11.174-11.603 11.174-6.631 0-12.096-4.666-12.096-10.989 0-3.929 1.903-6.692 3.745-6.692 1.597 0 2.578 1.043 2.578 2.455 0 1.228-1.043 1.78-1.043 3.991 0 3.929 3.192 6.446 6.816 6.446 3.806 0 6.323-2.64 6.323-5.832 0-3.929-2.517-5.587-7.736-7.43-5.832-2.084-10.683-4.603-10.683-11.54 0-6.262 5.034-11.174 11.603-11.174z"/><path d="m38.397 40.767c-6.63 0-12.155-5.342-12.155-12.096 0-6.998 5.586-12.217 12.34-12.217 7.245 0 12.34 5.403 12.34 12.771v8.963c0 1.536-1.228 2.579-2.64 2.579-1.473 0-2.702-1.043-2.702-2.579v-8.78c0-4.851-2.762-8.166-7.121-8.166-3.868 0-6.937 3.254-6.937 7.429 0 3.868 3.008 7.184 6.815 7.184 1.413 0 2.026-.368 2.886-.368 1.167 0 2.394.981 2.394 2.394-.001 1.903-2.273 2.886-5.22 2.886z"/><path d="m66.05 59.063c-6.877 0-12.586-4.913-12.586-11.298 0-2.149 1.228-3.13 2.64-3.13s2.578.921 2.64 2.701c.061 3.991 3.254 6.937 7.245 6.937 4.237 0 6.998-2.701 6.998-6.201 0-3.991-3.069-5.648-8.288-7.307-6.078-1.964-11.235-4.666-11.235-12.155 0-6.877 5.28-12.156 12.156-12.156 6.937 0 12.647 5.034 12.647 11.665 0 4.052-1.656 7.183-3.929 7.183-1.535 0-2.578-1.104-2.578-2.455 0-1.413 1.227-2.026 1.227-4.543 0-4.237-3.315-7.061-7.306-7.061-3.868 0-6.937 2.948-6.937 6.816 0 4.358 3.131 6.201 8.288 7.92 5.955 1.965 11.235 4.42 11.235 11.603 0 6.446-5.095 11.481-12.217 11.481z"/><path d="m93.335 40.767c-6.877 0-12.524-5.403-12.524-12.156 0-6.754 5.464-12.155 12.217-12.155 6.815 0 11.972 4.727 11.972 10.744 0 2.333-1.657 3.745-4.358 3.745h-7.06c-1.413 0-2.456-.982-2.456-2.272 0-1.228 1.043-2.211 2.456-2.211h5.279c.491 0 .861-.246.861-.737 0-1.78-2.273-4.543-6.508-4.543-3.93 0-7.122 3.377-7.122 7.429 0 4.114 3.254 7.368 7.306 7.368 4.667 0 6.202-2.763 8.105-2.763 1.597 0 2.455 1.043 2.455 2.211 0 1.104-.737 2.087-2.578 3.254-1.845 1.164-4.606 2.086-8.045 2.086z"/></g></svg>
